X:1
T:Ermuntre Dich
T:Ermuntre Dich
T:Johann Schop, 1641, harm. by Bach
T:Public Domain Courtesy of the Cyber Hymnal™
C:Johann Schop, 1641, harm. by Bach
Z:Public Domain
Z:Courtesy of the Cyber Hymnal™
%%score ( 1 2 ) ( 3 4 )
L:1/8
Q:1/4=110
M:4/4
K:Eb
V:1 treble 
V:2 treble 
V:3 bass 
V:4 bass 
V:1
 [B,E]2 | [CE]2 [DF]2 ([B,G][C=A]) [DB]2 | B2 [E=A]2 [DB]2 [DG]2 | [CA]2 G2 [DF]2 [EG]2 | %4
 F4 [B,E]2 [B,E]2 x | [CE]2 [DF]2 ([B,G][C=A]) [DB]2 | B2 [E=A]2 [DB]2 [DG]2 | %7
 [CA]2 G2 [DF]2 [EG]2 | F4 [B,E]4 F2 | F2 z A2 [FA]2 x | (GF) [=EG]2 [CF]2 G2 | %11
 [CG]2 [CG]2 [CA][DB] c2 | c2 [F=B]2 [Ec]2 [Fd]2 | e2 A2 G2 x3 | [EF]4 [DF]4 B2 | %15
 [Cc]2 [DB]2 A2 GA | F4 [G,E]2 |] %17
V:2
 x2 | x8 | (CD) x6 | x2 (B,C) x4 | (E2 D2) x5 | x8 | (CD) x6 | x2 B,C x4 | (E2 D2) x2 (DE) x2 | %9
 x2 G2 =E FE x | F2 x3 C=B, x | x6 ED | DE x6 | EF G2 x GF FE | x8 ED | x4 EF B,2 | C2 B,2 x2 |] %17
V:3
 G,2 | (G,A,) z B, (G,F,) F,2 | F,2 [F,,F,]2 [B,,F,]2 (G,F,) | %3
 ([C,E,][D,F,]) ([E,G,][A,,A,]) B,2 B,2 | B,3 B, A, [E,G,]2 G,2 | (G,A,-) (A,B,) (G,F,) F,2 | %6
 F,2 [F,,F,]2 [B,,F,]2 (G,F,) | ([C,E,][D,F,]) [E,G,][A,,A,] (A,G,) B,2 | %8
 (B,B,) (B,A,) [E,G,]4 B,C | ([B,D][A,C]) [G,B,]2 [F,C]2 [=B,,D]2 | %10
 [C,G,]2 (CB,) [F,,A,]2 [C,E,][D,F,] | (G,A,) (B,C) [F,A,]2 [^F,=A,]2 | %12
 G,2 [G,,G,]2 [C,G,]2 B,-B, | B,2 E2 [C,E,][D,F,] G,2 x | %14
 ([=A,,C][G,,B,][A,,C][F,,=A,]) [B,,B,]4 [G,,B,]2 | (B,A,) (A,G,) [C,G,][D,F,] x2 | %16
 (E,D,/C,/) [B,,D,]2 [E,,E,]2 |] %17
V:4
 (E,D,) | C,2 B,,2 E,2 (D,E,) | x6 =B,,2 | x4 (A,G,) (F,E,) | (B,2 B,,2) x (E,D,) x2 | %5
 C,2 B,,2 E,2 (D,E,) | x6 =B,,2 | x6 (F,E,) | x B,,2 x4 B,,2 x | x8 | x2 C,2 x4 | E,2 =E,2 x4 | %12
 x7 A, | G,F, (E,D,) x E,D, x2 | x10 | A,,2 B,,2 E,2 x2 | A,,2 x4 |] %17

